packages/ffe-icons/icons/open/400/sm/border_style.svg

<svg xmlns="http://www.w3.org/2000/svg" height="20" viewBox="0 -960 960 960" width="20"><path d="M780.211-594Q765-594 754.5-604.289q-10.5-10.29-10.5-25.5Q744-645 754.289-655.5q10.29-10.5 25.5-10.5Q795-666 805.5-655.711q10.5 10.29 10.5 25.5Q816-615 805.711-604.5q-10.29 10.5-25.5 10.5Zm0 150Q765-444 754.5-454.289q-10.5-10.29-10.5-25.5Q744-495 754.289-505.5q10.29-10.5 25.5-10.5Q795-516 805.5-505.711q10.5 10.29 10.5 25.5Q816-465 805.711-454.5q-10.29 10.5-25.5 10.5Zm0 150Q765-294 754.5-304.289q-10.5-10.29-10.5-25.5Q744-345 754.289-355.5q10.29-10.5 25.5-10.5Q795-366 805.5-355.711q10.5 10.29 10.5 25.5Q816-315 805.711-304.5q-10.29 10.5-25.5 10.5Zm-450 150Q315-144 304.5-154.289q-10.5-10.29-10.5-25.5Q294-195 304.289-205.5q10.29-10.5 25.5-10.5Q345-216 355.5-205.711q10.5 10.29 10.5 25.5Q366-165 355.711-154.5q-10.29 10.5-25.5 10.5Zm150 0Q465-144 454.5-154.289q-10.5-10.29-10.5-25.5Q444-195 454.289-205.5q10.29-10.5 25.5-10.5Q495-216 505.5-205.711q10.5 10.29 10.5 25.5Q516-165 505.711-154.5q-10.29 10.5-25.5 10.5Zm150 0Q615-144 604.5-154.289q-10.5-10.29-10.5-25.5Q594-195 604.289-205.5q10.29-10.5 25.5-10.5Q645-216 655.5-205.711q10.5 10.29 10.5 25.5Q666-165 655.711-154.5q-10.29 10.5-25.5 10.5Zm150 0Q765-144 754.5-154.289q-10.5-10.29-10.5-25.5Q744-195 754.289-205.5q10.29-10.5 25.5-10.5Q795-216 805.5-205.711q10.5 10.29 10.5 25.5Q816-165 805.711-154.5q-10.29 10.5-25.5 10.5ZM144-180v-564q0-29.7 21.15-50.85Q186.3-816 216-816h564q15.3 0 25.65 10.289 10.35 10.29 10.35 25.5Q816-765 805.65-754.5 795.3-744 780-744H216v564q0 15.3-10.289 25.65-10.29 10.35-25.5 10.35Q165-144 154.5-154.35 144-164.7 144-180Z"/></svg>

<svg xmlns="http://www.w3.org/2000/svg" height="20" viewBox="0 -960 960 960" width="20"><path d="M780.21-594q-15.21 0-25.71-10.29t-10.5-25.5q0-15.21 10.29-25.71t25.5-10.5q15.21 0 25.71 10.29t10.5 25.5q0 15.21-10.29 25.71t-25.5 10.5Zm0 150q-15.21 0-25.71-10.29t-10.5-25.5q0-15.21 10.29-25.71t25.5-10.5q15.21 0 25.71 10.29t10.5 25.5q0 15.21-10.29 25.71t-25.5 10.5Zm0 150q-15.21 0-25.71-10.29t-10.5-25.5q0-15.21 10.29-25.71t25.5-10.5q15.21 0 25.71 10.29t10.5 25.5q0 15.21-10.29 25.71t-25.5 10.5Zm-450 150q-15.21 0-25.71-10.29t-10.5-25.5q0-15.21 10.29-25.71t25.5-10.5q15.21 0 25.71 10.29t10.5 25.5q0 15.21-10.29 25.71t-25.5 10.5Zm150 0q-15.21 0-25.71-10.29t-10.5-25.5q0-15.21 10.29-25.71t25.5-10.5q15.21 0 25.71 10.29t10.5 25.5q0 15.21-10.29 25.71t-25.5 10.5Zm150 0q-15.21 0-25.71-10.29t-10.5-25.5q0-15.21 10.29-25.71t25.5-10.5q15.21 0 25.71 10.29t10.5 25.5q0 15.21-10.29 25.71t-25.5 10.5Zm150 0q-15.21 0-25.71-10.29t-10.5-25.5q0-15.21 10.29-25.71t25.5-10.5q15.21 0 25.71 10.29t10.5 25.5q0 15.21-10.29 25.71t-25.5 10.5ZM144-180v-564q0-29.7 21.15-50.85Q186.3-816 216-816h564q15.3 0 25.65 10.29Q816-795.42 816-780.21t-10.35 25.71Q795.3-744 780-744H216v564q0 15.3-10.29 25.65Q195.42-144 180.21-144t-25.71-10.35Q144-164.7 144-180Z"/></svg>
